svgs/thin/ball-pile.svg

<svg xmlns="http://www.w3.org/2000/svg" viewBox="0 0 576 512"><!-- Font Awesome Pro 6.0.0-alpha2 by @fontawesome - https://fontawesome.com License - https://fontawesome.com/license (Commercial License) --><path d="M480 320C469.582 320 459.738 322.082 450.346 325.148C468.553 307.68 480 283.227 480 256C480 202.98 437.02 160 384 160C373.582 160 363.738 162.082 354.346 165.148C372.553 147.68 384 123.227 384 96C384 42.98 341.02 0 288 0S192 42.98 192 96C192 123.227 203.447 147.68 221.654 165.148C212.262 162.082 202.418 160 192 160C138.98 160 96 202.98 96 256C96 283.227 107.447 307.68 125.654 325.148C116.262 322.082 106.418 320 96 320C42.98 320 0 362.98 0 416S42.98 512 96 512S192 469.02 192 416C192 388.773 180.553 364.32 162.346 346.852C171.738 349.918 181.582 352 192 352S212.262 349.918 221.654 346.852C203.447 364.32 192 388.773 192 416C192 469.02 234.98 512 288 512S384 469.02 384 416C384 388.773 372.553 364.32 354.346 346.852C363.738 349.918 373.582 352 384 352S404.262 349.918 413.654 346.852C395.447 364.32 384 388.773 384 416C384 469.02 426.98 512 480 512S576 469.02 576 416S533.02 320 480 320ZM176 416C176 460.113 140.113 496 96 496C51.889 496 16 460.113 16 416S51.889 336 96 336C140.113 336 176 371.887 176 416ZM208 96C208 51.887 243.889 16 288 16C332.113 16 368 51.887 368 96S332.113 176 288 176C243.889 176 208 140.113 208 96ZM112 256C112 211.887 147.889 176 192 176C236.113 176 272 211.887 272 256S236.113 336 192 336C147.889 336 112 300.113 112 256ZM368 416C368 460.113 332.113 496 288 496C243.889 496 208 460.113 208 416S243.889 336 288 336C332.113 336 368 371.887 368 416ZM288 320C277.582 320 267.738 322.082 258.346 325.148C276.553 307.68 288 283.227 288 256S276.553 204.32 258.346 186.852C267.738 189.918 277.582 192 288 192S308.262 189.918 317.654 186.852C299.447 204.32 288 228.773 288 256S299.447 307.68 317.654 325.148C308.262 322.082 298.418 320 288 320ZM304 256C304 211.887 339.889 176 384 176C428.113 176 464 211.887 464 256S428.113 336 384 336C339.889 336 304 300.113 304 256ZM480 496C435.889 496 400 460.113 400 416S435.889 336 480 336C524.113 336 560 371.887 560 416S524.113 496 480 496Z"/></svg>

<svg xmlns="http://www.w3.org/2000/svg" viewBox="0 0 576 512"><!--! Font Awesome Pro 6.3.0 by @fontawesome - https://fontawesome.com License - https://fontawesome.com/license (Commercial License) Copyright 2023 Fonticons, Inc. --><path d="M480 320c-10.42 0-20.28 2.108-29.68 5.174C468.5 307.7 480 283.2 480 256c0-53.02-42.98-96-96-96c-10.42 0-20.28 2.108-29.68 5.174C372.5 147.7 384 123.2 384 96c0-53.02-42.98-96-96-96S192 42.98 192 96c0 27.23 11.47 51.71 29.68 69.17C212.3 162.1 202.4 160 192 160C138.1 160 96 202.1 96 256c0 27.23 11.47 51.71 29.68 69.17C116.3 322.1 106.4 320 96 320c-53.02 0-96 42.98-96 96s42.98 96 96 96s96-42.98 96-96c0-27.23-11.47-51.71-29.68-69.17C171.7 349.9 181.6 352 192 352s20.28-2.108 29.68-5.174C203.5 364.3 192 388.8 192 416c0 53.02 42.98 96 96 96s96-42.98 96-96c0-27.23-11.47-51.71-29.68-69.17C363.7 349.9 373.6 352 384 352s20.28-2.108 29.68-5.174C395.5 364.3 384 388.8 384 416c0 53.02 42.98 96 96 96s96-42.98 96-96S533 320 480 320zM176 416c0 44.11-35.89 80-80 80c-44.11 0-80-35.89-80-80s35.89-80 80-80C140.1 336 176 371.9 176 416zM208 96c0-44.11 35.89-80 80-80c44.11 0 80 35.89 80 80S332.1 176 288 176C243.9 176 208 140.1 208 96zM112 256c0-44.11 35.89-80 80-80c44.11 0 80 35.89 80 80S236.1 336 192 336C147.9 336 112 300.1 112 256zM368 416c0 44.11-35.89 80-80 80c-44.11 0-80-35.89-80-80s35.89-80 80-80C332.1 336 368 371.9 368 416zM288 320c-10.42 0-20.28 2.108-29.68 5.174C276.5 307.7 288 283.2 288 256S276.5 204.3 258.3 186.8C267.7 189.9 277.6 192 288 192s20.28-2.108 29.68-5.174C299.5 204.3 288 228.8 288 256s11.47 51.71 29.68 69.17C308.3 322.1 298.4 320 288 320zM304 256c0-44.11 35.89-80 80-80c44.11 0 80 35.89 80 80s-35.89 80-80 80C339.9 336 304 300.1 304 256zM480 496c-44.11 0-80-35.89-80-80s35.89-80 80-80c44.11 0 80 35.89 80 80S524.1 496 480 496z"/></svg>
